public/assets/img/bitfinex.svg

<svg width="24" height="24" viewBox="0 0 24 24" fill="none" xmlns="http://www.w3.org/2000/svg">
<path d="M12.1644 2C17.713 2 22.21 6.47656 22.21 12C22.21 17.5234 17.713 22 12.1644 22C6.61572 22 2.11871 17.5234 2.11871 12C2.11871 6.47656 6.61572 2 12.1644 2Z" fill="#97C554"/>
<path d="M7.13498 16.2058C7.63679 16.7348 10.393 19.2702 14.7193 16.3277C17.8476 13.9025 17.7695 8.64463 17.469 7.05685C17.3643 7.28793 13.7306 15.209 7.13498 16.2058ZM17.4685 7.05551C17.4302 7.03975 13.4055 6.49352 9.42668 9.04452C6.95599 10.6286 6.62939 12.9471 6.74212 14.492C12.5261 13.8477 17.3373 7.23716 17.4685 7.05551Z" fill="white"/>
<path d="M17.4685 7.05551C17.4302 7.03975 13.4055 6.49352 9.42668 9.04452C6.95599 10.6286 6.62939 12.9471 6.74212 14.492C12.5261 13.8477 17.3373 7.23716 17.4685 7.05551Z" fill="white"/>
</svg>

<svg width="24" height="24" fill="none" xmlns="http://www.w3.org/2000/svg"><path d="M12.164 2C17.713 2 22.21 6.477 22.21 12s-4.497 10-10.046 10C6.616 22 2.12 17.523 2.12 12S6.616 2 12.164 2Z" fill="#97C554"/><path d="M7.135 16.206c.502.529 3.258 3.064 7.584.122 3.129-2.425 3.05-7.683 2.75-9.271-.105.23-3.738 8.152-10.334 9.149Zm10.334-9.15c-.039-.016-4.064-.562-8.042 1.989-2.471 1.584-2.798 3.902-2.685 5.447 5.784-.644 10.595-7.255 10.726-7.436Z" fill="#fff"/><path d="M17.468 7.056c-.038-.016-4.063-.562-8.041 1.989-2.471 1.584-2.798 3.902-2.685 5.447 5.784-.644 10.595-7.255 10.726-7.436Z" fill="#fff"/></svg>
